X:72
T:Marquis of Huntley's reel
M:2/4
L:1/8
K:Am
EA A>G | EA A>B | G>A B>c | d/2c/2B/2A/2 GB | 
EA A>G | EA A>a | gd e/2d/2c/2B/2 | A2 A2 :|
a>b c'a | bg ae | gd eg | G>A BG | 
a>b c'a | bg ae | ab c'/2b/2a/2g/2| a2 a>b | 
c'a bg | ae g>e | dB gB | G>A BG | 
E>A AG | E>A Aa | gd e/2d/2c/2B/2 | A2 A2 :|
%%newpage
%%vskip 1.5cm
